X: 1134
T: Donal O'Connor's Slide 
T: The Scartaglen Slide
M: 12/8
L: 1/8
R: slide
K: D Major
|: d2 e |
f3 gfe d2 B A2 d | Bcd e2 f g3 gfe |
f>gf gfe d2 B A3 | BB/c/d ecA d3 :|
|: dcB |
A2 f fef a2 f fed | A2 d e2 f g3 gec |
Aff fef aff fed | e>fe Ace d3- :|
